gama.ui.shared/icons_svg/light/status/status.system.svg

<svg height="24.75" viewBox="269.991 -3428.719 24.75 24.75" width="24.75" xmlns="http://www.w3.org/2000/svg"><path d="m290.18805-3421.6774v-.4446c0-.7362-.59695-1.333-1.33333-1.333h-11.55556c-.73636 0-1.33333.5968-1.33333 1.333v.4446zm0 .8889h-14.22222v10.2222c0 .7363.59697 1.3333 1.33333 1.3333h11.55556c.73638 0 1.33333-.597 1.33333-1.3333zm-15.11111-1.3335c0-1.227.99492-2.222 2.22222-2.222h11.55556c1.2273 0 2.22222.995 2.22222 2.222v11.5557c0 1.2273-.99492 2.2223-2.22222 2.2223h-11.55556c-1.2273 0-2.22222-.995-2.22222-2.2223zm9.77778 4.4446c0-.7364.59695-1.3333 1.33333-1.3333h.88889c.73638 0 1.33333.5969 1.33333 1.3333v5.3334c0 .7363-.59695 1.3333-1.33333 1.3333h-.88889c-.73638 0-1.33333-.597-1.33333-1.3333zm.88888 0v5.3334c0 .2454.199.4444.44445.4444h.88889c.24546 0 .44446-.199.44446-.4444v-5.3334c0-.2456-.199-.4446-.44446-.4446h-.88889c-.24545 0-.44445.199-.44445.4446zm-7.55555-.4446c-.24545 0-.44445-.199-.44445-.4443 0-.2454.199-.4444.44445-.4444h4.44445c.24546 0 .44444.199.44444.4444 0 .2453-.19898.4443-.44444.4443zm0 1.778c-.24545 0-.44445-.199-.44445-.4445s.199-.4445.44445-.4445h4.44445c.24546 0 .44444.199.44444.4445s-.19898.4445-.44444.4445zm0 1.7777c-.24545 0-.44445-.199-.44445-.4444 0-.2453.199-.4443.44445-.4443h2.66667c.24546 0 .44444.199.44444.4443 0 .2454-.19898.4444-.44444.4444zm.88889.8889h2.66666c.7364 0 1.33334.597 1.33334 1.3334 0 .7363-.59694 1.3333-1.33334 1.3333h-2.66666c-.73638 0-1.33334-.597-1.33334-1.3333 0-.7364.59696-1.3334 1.33334-1.3334zm0 .8889c-.24546 0-.44444.199-.44444.4445 0 .2454.19898.4444.44444.4444h2.66666c.24547 0 .44445-.199.44445-.4444 0-.2455-.19898-.4445-.44445-.4445z" fill="#1572a4"/></svg>

<?xml version="1.0" encoding="UTF-8" standalone="no"?>
<!DOCTYPE svg PUBLIC "-//W3C//DTD SVG 1.1//EN" "http://www.w3.org/Graphics/SVG/1.1/DTD/svg11.dtd">
<svg xmlns:dc="http://purl.org/dc/elements/1.1/" xmlns="http://www.w3.org/2000/svg" xmlns:xl="http://www.w3.org/1999/xlink" version="1.1" viewBox="269.9909 -3428.719 24.75 24.75" width="24.75" height="24.75">
  <defs/>
  <g id="SOURCES" stroke="none" stroke-opacity="1" fill="none" stroke-dasharray="none" fill-opacity="1">
    <title>SOURCES</title>
    <g id="SOURCES_Calque_1">
      <title>Calque 1</title>
      <g id="Graphic_6317">
        <path d="M 290.18805 -3421.6774 L 290.18805 -3422.122 C 290.18805 -3422.8582 289.5911 -3423.455 288.85472 -3423.455 L 277.29916 -3423.455 C 276.5628 -3423.455 275.96583 -3422.8582 275.96583 -3422.122 L 275.96583 -3421.6774 Z M 290.18805 -3420.7885 L 275.96583 -3420.7885 L 275.96583 -3410.5663 C 275.96583 -3409.83 276.5628 -3409.233 277.29916 -3409.233 L 288.85472 -3409.233 C 289.5911 -3409.233 290.18805 -3409.83 290.18805 -3410.5663 Z M 275.07694 -3422.122 C 275.07694 -3423.349 276.07186 -3424.344 277.29916 -3424.344 L 288.85472 -3424.344 C 290.08202 -3424.344 291.07694 -3423.349 291.07694 -3422.122 L 291.07694 -3410.5663 C 291.07694 -3409.339 290.08202 -3408.344 288.85472 -3408.344 L 277.29916 -3408.344 C 276.07186 -3408.344 275.07694 -3409.339 275.07694 -3410.5663 Z M 284.85472 -3417.6774 C 284.85472 -3418.4138 285.45167 -3419.0107 286.18805 -3419.0107 L 287.07694 -3419.0107 C 287.81332 -3419.0107 288.41027 -3418.4138 288.41027 -3417.6774 L 288.41027 -3412.344 C 288.41027 -3411.6077 287.81332 -3411.0107 287.07694 -3411.0107 L 286.18805 -3411.0107 C 285.45167 -3411.0107 284.85472 -3411.6077 284.85472 -3412.344 Z M 285.7436 -3417.6774 L 285.7436 -3412.344 C 285.7436 -3412.0986 285.9426 -3411.8996 286.18805 -3411.8996 L 287.07694 -3411.8996 C 287.3224 -3411.8996 287.5214 -3412.0986 287.5214 -3412.344 L 287.5214 -3417.6774 C 287.5214 -3417.923 287.3224 -3418.122 287.07694 -3418.122 L 286.18805 -3418.122 C 285.9426 -3418.122 285.7436 -3417.923 285.7436 -3417.6774 Z M 278.18805 -3418.122 C 277.9426 -3418.122 277.7436 -3418.321 277.7436 -3418.5663 C 277.7436 -3418.8117 277.9426 -3419.0107 278.18805 -3419.0107 L 282.6325 -3419.0107 C 282.87796 -3419.0107 283.07694 -3418.8117 283.07694 -3418.5663 C 283.07694 -3418.321 282.87796 -3418.122 282.6325 -3418.122 Z M 278.18805 -3416.344 C 277.9426 -3416.344 277.7436 -3416.543 277.7436 -3416.7885 C 277.7436 -3417.034 277.9426 -3417.233 278.18805 -3417.233 L 282.6325 -3417.233 C 282.87796 -3417.233 283.07694 -3417.034 283.07694 -3416.7885 C 283.07694 -3416.543 282.87796 -3416.344 282.6325 -3416.344 Z M 278.18805 -3414.5663 C 277.9426 -3414.5663 277.7436 -3414.7653 277.7436 -3415.0107 C 277.7436 -3415.256 277.9426 -3415.455 278.18805 -3415.455 L 280.85472 -3415.455 C 281.10018 -3415.455 281.29916 -3415.256 281.29916 -3415.0107 C 281.29916 -3414.7653 281.10018 -3414.5663 280.85472 -3414.5663 Z M 279.07694 -3413.6774 L 281.7436 -3413.6774 C 282.48 -3413.6774 283.07694 -3413.0804 283.07694 -3412.344 C 283.07694 -3411.6077 282.48 -3411.0107 281.7436 -3411.0107 L 279.07694 -3411.0107 C 278.34056 -3411.0107 277.7436 -3411.6077 277.7436 -3412.344 C 277.7436 -3413.0804 278.34056 -3413.6774 279.07694 -3413.6774 Z M 279.07694 -3412.7885 C 278.83148 -3412.7885 278.6325 -3412.5895 278.6325 -3412.344 C 278.6325 -3412.0986 278.83148 -3411.8996 279.07694 -3411.8996 L 281.7436 -3411.8996 C 281.98907 -3411.8996 282.18805 -3412.0986 282.18805 -3412.344 C 282.18805 -3412.5895 281.98907 -3412.7885 281.7436 -3412.7885 Z" fill="#1572a4"/>
      </g>
      <g id="Graphic_6319"/>
    </g>
  </g>
</svg>
